src/actions/22/gnumeric-autofilter-delete.svg

<svg id="svg8" version="1.1" viewBox="0 0 22 22" xmlns="http://www.w3.org/2000/svg">
    <defs id="defs3051">
        <style id="current-color-scheme" type="text/css">.ColorScheme-Text {
        color:#363636;
      }</style>
    </defs>
    <path id="path4" class="ColorScheme-Text" d="m5 3-1 1v1.3046875l5 7.0625005v3.671872l3 2.226563v-1.246092l-2-1.484375v-3.535156h-0.035156l-4.964844-7.0117188v-0.9882812h12v0.9882812l-4.964844 7.0117188h1.22461l4.740234-6.6953125v-1.3046875l-1-1zm1 2 2 3v-2l2-1z" fill="currentColor"/>
    <path id="path6" d="M 13.990234,13 13,13.990234 15.009766,16 13,18.009766 13.990234,19 16,16.990234 18.009766,19 19,18.009766 16.990234,16 19,13.990234 18.009766,13 16,15.009766 Z" fill="#da4453"/>
</svg>

<svg xmlns="http://www.w3.org/2000/svg" viewBox="0 0 22 22">
    <path fill="currentColor" d="M5 3 4 4v1.305l5 7.062v3.672l3 2.227V17.02l-2-1.485V12h-.035L5 4.988V4h12v.988L12.035 12h1.225L18 5.305V4l-1-1zm1 2 2 3V6l2-1z" style="color:#050505;opacity:.7"/>
    <path fill="#d98c8c" d="m13.99 13-.99.99L15.01 16 13 18.01l.99.99L16 16.99 18.01 19l.99-.99L16.99 16 19 13.99l-.99-.99L16 15.01Z"/>
</svg>
